public/img/binit-strategy/icons/icon-05.svg

<svg fill="none" height="34" viewBox="0 0 34 34" width="34" xmlns="http://www.w3.org/2000/svg" xmlns:xlink="http://www.w3.org/1999/xlink"><clipPath id="a"><path d="m0 0h34v34h-34z"/></clipPath><g clip-path="url(#a)" stroke="#fff" stroke-miterlimit="10" stroke-width="2"><path d="m30.8589 14.7376c2.5217-2.5425 3.0311-6.34752 1.5261-9.3997-1.8117 1.82664-4.4222 4.45863-6.1104 6.1608-.9319-.9396-3.0948-3.1203-3.7836-3.81477l5.9716-6.02071c-2.9308-1.221651-6.6604-.861771-9.0432 1.53873-3.3842 3.41206-2.2863 7.82205-2.2863 7.82205l-14.78506 14.9069c-1.653505 1.6671-1.653505 4.3711 0 6.0382 1.6535 1.6671 4.33537 1.6671 5.98887 0l14.78309-14.9049s4.2833 1.1555 7.7369-2.3266z"/><path d="m6.98242 7.04004 7.22558 7.28516"/><path d="m17.1899 22.9493 5.5718-5.6177 8.928 9.0016c1.5375 1.5502 1.5375 4.0674 0 5.6177-1.5376 1.5502-4.0342 1.5502-5.5718 0z"/><path d="m7.74085 6.27749-1.51458 1.52706c-.13892.14006-.32221.22566-.51901.24122l-1.47214.12061c-.31835.02529-.62127-.13423-.78334-.41046l-2.566111-4.41973c-.191011-.32875-.136988-.7431.129271-1.0135l1.28884-1.29946c.26626-.268454.67915-.322923 1.00522-.130338l4.38554 2.587248c.27398.16146.43412.46882.40711.7898l-.11962 1.48426c-.01544.19648-.10033.38323-.23925.52329z"/></g></svg>

<svg width="34" height="34" viewBox="0 0 34 34" fill="none" xmlns="http://www.w3.org/2000/svg">
<g clip-path="url(#clip0_824_25224)">
<path d="M30.8589 14.7376C33.3806 12.1951 33.89 8.39008 32.385 5.3379C30.5733 7.16454 27.9628 9.79653 26.2746 11.4987C25.3427 10.5591 23.1798 8.3784 22.491 7.68393L28.4626 1.66322C25.5318 0.441569 21.8022 0.801449 19.4194 3.20195C16.0352 6.61401 17.1331 11.024 17.1331 11.024L2.34804 25.9309C0.694535 27.598 0.694535 30.302 2.34804 31.9691C4.00154 33.6362 6.68341 33.6362 8.33691 31.9691L23.12 17.0642C23.12 17.0642 27.4033 18.2197 30.8569 14.7376H30.8589Z" stroke="white" stroke-width="2" stroke-miterlimit="10"/>
<path d="M6.98242 7.04004L14.208 14.3252" stroke="white" stroke-width="2" stroke-miterlimit="10"/>
<path d="M17.1899 22.9493L22.7617 17.3316L31.6897 26.3332C33.2272 27.8834 33.2272 30.4006 31.6897 31.9509C30.1521 33.5011 27.6555 33.5011 26.1179 31.9509L17.1899 22.9493Z" stroke="white" stroke-width="2" stroke-miterlimit="10"/>
<path d="M7.74085 6.27749L6.22627 7.80455C6.08735 7.94461 5.90406 8.03021 5.70726 8.04577L4.23512 8.16638C3.91677 8.19167 3.61385 8.03215 3.45178 7.75592L0.885669 3.33619C0.694658 3.00744 0.748681 2.59309 1.01494 2.32269L2.30378 1.02323C2.57004 0.754776 2.98293 0.700307 3.309 0.892892L7.69454 3.48014C7.96852 3.6416 8.12866 3.94896 8.10165 4.26994L7.98203 5.7542C7.96659 5.95068 7.8817 6.13743 7.74278 6.27749H7.74085Z" stroke="white" stroke-width="2" stroke-miterlimit="10"/>
</g>
<defs>
<clipPath id="clip0_824_25224">
<rect width="34" height="34" fill="white"/>
</clipPath>
</defs>
</svg>
